SVG_Azure_All/Automation Certificate.svg

<?xml version="1.0" encoding="UTF-8" standalone="no"?>
<!-- Generated by Microsoft Visio, SVG Export Automation Certificate.svg Page-1 -->

<svg
   xmlns:dc="http://purl.org/dc/elements/1.1/"
   xmlns:cc="http://creativecommons.org/ns#"
   xmlns:rdf="http://www.w3.org/1999/02/22-rdf-syntax-ns#"
   xmlns:svg="http://www.w3.org/2000/svg"
   xmlns="http://www.w3.org/2000/svg"
   xmlns:sodipodi="http://sodipodi.sourceforge.net/DTD/sodipodi-0.dtd"
   xmlns:inkscape="http://www.inkscape.org/namespaces/inkscape"
   width="0.78736264in"
   height="0.7098819in"
   viewBox="0 0 56.690018 51.111376"
   xml:space="preserve"
   class="st7"
   version="1.1"
   id="svg56"
   sodipodi:docname="Automation Certificate.svg"
   style="font-size:12px;overflow:visible;color-interpolation-filters:sRGB;fill:none;fill-rule:evenodd;stroke-linecap:square;stroke-miterlimit:3"
   inkscape:version="0.92.5 (2060ec1f9f, 2020-04-08)"><metadata
   id="metadata60"><rdf:RDF><cc:Work
       rdf:about=""><dc:format>image/svg+xml</dc:format><dc:type
         rdf:resource="http://purl.org/dc/dcmitype/StillImage" /></cc:Work></rdf:RDF></metadata><sodipodi:namedview
   pagecolor="#ffffff"
   bordercolor="#666666"
   borderopacity="1"
   objecttolerance="10"
   gridtolerance="10"
   guidetolerance="10"
   inkscape:pageopacity="0"
   inkscape:pageshadow="2"
   inkscape:window-width="640"
   inkscape:window-height="480"
   id="namedview58"
   showgrid="false"
   inkscape:zoom="1.4860802"
   inkscape:cx="37.795379"
   inkscape:cy="34.078962"
   inkscape:window-x="0"
   inkscape:window-y="0"
   inkscape:window-maximized="0"
   inkscape:current-layer="svg56" />
	<style
   type="text/css"
   id="style2">
	<![CDATA[
		.st1 {fill:url(#grad0-6);stroke:none;stroke-linecap:butt;stroke-width:34}
		.st2 {fill:#ffffff;stroke:none;stroke-linecap:butt;stroke-width:34}
		.st3 {fill:#d15900;stroke:none;stroke-linecap:butt;stroke-width:34}
		.st4 {fill:#b31b1b;stroke:none;stroke-linecap:butt;stroke-width:34}
		.st5 {fill:#e62323;stroke:none;stroke-linecap:butt;stroke-width:34}
		.st6 {fill:#ffb34d;stroke:none;stroke-linecap:butt;stroke-width:34}
		.st7 {fill:none;fill-rule:evenodd;font-size:12px;overflow:visible;stroke-linecap:square;stroke-miterlimit:3}
	]]>
	</style>

	<defs
   id="Patterns_And_Gradients">
		<linearGradient
   id="grad0-6"
   x1="-3.6504358e-08"
   y1="95.324221"
   x2="47.332746"
   y2="95.324221"
   gradientTransform="scale(1.1976909,0.83493995)"
   gradientUnits="userSpaceOnUse">
			<stop
   offset="0"
   stop-color="#e27908"
   stop-opacity="1"
   id="stop4" />
			<stop
   offset="0.325"
   stop-color="#e47d0a"
   stop-opacity="1"
   id="stop6" />
			<stop
   offset="0.62"
   stop-color="#eb8810"
   stop-opacity="1"
   id="stop8" />
			<stop
   offset="0.91"
   stop-color="#f69a19"
   stop-opacity="1"
   id="stop10" />
			<stop
   offset="1"
   stop-color="#faa21d"
   stop-opacity="1"
   id="stop12" />
		</linearGradient>
	</defs>
	<g
   id="g54"
   transform="translate(-34,-34.0003)">
		<title
   id="title16">Page-1</title>
		<g
   id="group9058-1"
   transform="translate(34,-34.0817)">
			<title
   id="title18">Automation Certificate</title>
			<g
   id="group9059-2">
				<title
   id="title20">Sheet.9059</title>
				<g
   id="shape9060-3"
   transform="translate(0,-11.508)">
					<title
   id="title22">Sheet.9060</title>
					<path
   d="m 0,117.25 a 1.88981,1.8596 -180 0 0 1.89,1.86 H 54.8 a 1.88981,1.8596 -180 0 0 1.89,-1.86 V 81.45 A 1.88981,1.8596 -180 0 0 54.8,79.59 H 1.89 A 1.88981,1.8596 -180 0 0 0,81.45 Z"
   class="st1"
   id="path24"
   inkscape:connector-curvature="0"
   style="fill:url(#grad0-6);stroke:none;stroke-width:34;stroke-linecap:butt" />
				</g>
				<g
   id="shape9061-7"
   transform="translate(3.30709,-14.9947)">
					<title
   id="title27">Sheet.9061</title>
					<path
   d="m 0,118.18 a 0.944904,0.929801 -180 0 0 0.944882,0.92978 L 49.13,119.11 a 0.944904,0.929801 -180 0 0 0.944882,-0.92978 L 50.08,87.49 A 0.944904,0.929801 -180 0 0 49.135118,86.560221 L 0.94,86.56 a 0.944904,0.929801 -180 0 0 -0.944882,0.929779 z"
   class="st2"
   id="path29"
   inkscape:connector-curvature="0"
   style="fill:#ffffff;stroke:none;stroke-width:34;stroke-linecap:butt" />
				</g>
				<g
   id="shape9062-9"
   transform="translate(10.9039,-23.5362)">
					<title
   id="title32">Sheet.9062</title>
					<path
   d="m 36.17,118.21 a 0.913386,0.898787 0 0 1 -0.913386,0.89879 L 14.81,119.11 a 0.913386,0.898787 0 1 1 0,-1.79447 l 20.44,-0.006 a 0.910236,0.895687 0 0 1 0.913386,0.89569 z m 0,-5.56 a 0.910236,0.895687 0 0 1 -0.913386,0.89569 L 14.81,113.55 a 0.913386,0.898787 0 1 1 0,-1.79447 l 20.44,-0.006 a 0.913386,0.898787 0 0 1 0.913386,0.89879 z m 0,-8.11 a 0.913386,0.898787 0 0 1 -0.913386,0.89879 L 0.97,105.44 a 0.913386,0.898787 0 1 1 0,-1.79447 l 34.28,-0.006 a 0.910236,0.895687 0 0 1 0.913386,0.89569 z"
   class="st3"
   id="path34"
   inkscape:connector-curvature="0"
   style="fill:#d15900;stroke:none;stroke-width:34;stroke-linecap:butt" />
				</g>
				<g
   id="shape9063-11"
   transform="translate(4.87244)">
					<title
   id="title37">Sheet.9063</title>
					<path
   d="m 11.29,105.07 a 7.95276,7.82564 0 0 1 -10.63,0 L 0,118.06 a 1.04882,1.03206 -180 0 0 1.8,0.77 l 4.09,-4.08 4.12,4.12 a 1.04882,1.03206 -180 0 0 1.81,-0.76 z"
   class="st4"
   id="path39"
   inkscape:connector-curvature="0"
   style="fill:#b31b1b;stroke:none;stroke-width:34;stroke-linecap:butt" />
				</g>
				<g
   id="shape9064-13"
   transform="translate(1.46772,-11.322)">
					<title
   id="title42">Sheet.9064</title>
					<ellipse
   cx="9.4897604"
   cy="109.736"
   rx="9.4897604"
   ry="9.3690796"
   class="st5"
   id="ellipse44"
   style="fill:#e62323;stroke:none;stroke-width:34;stroke-linecap:butt" />
				</g>
				<g
   id="shape9065-15"
   transform="translate(3.75748,-13.5845)">
					<title
   id="title47">Sheet.9065</title>
					<ellipse
   cx="7.1999998"
   cy="111.999"
   rx="7.1999998"
   ry="7.1066098"
   class="st6"
   id="ellipse49"
   style="fill:#ffb34d;stroke:none;stroke-width:34;stroke-linecap:butt" />
				</g>
			</g>
		</g>
	</g>
</svg>

<?xml version="1.0" encoding="UTF-8" standalone="no"?>
<!DOCTYPE svg PUBLIC "-//W3C//DTD SVG 1.1//EN" "http://www.w3.org/Graphics/SVG/1.1/DTD/svg11.dtd">
<!-- Generated by Microsoft Visio, SVG Export Automation Certificate.svg Page-1 -->
<svg xmlns="http://www.w3.org/2000/svg" xmlns:xlink="http://www.w3.org/1999/xlink" xmlns:ev="http://www.w3.org/2001/xml-events"
		width="1.73185in" height="1.65424in" viewBox="0 0 124.693 119.105" xml:space="preserve" color-interpolation-filters="sRGB"
		class="st7">
	<style type="text/css">
	<![CDATA[
		.st1 {fill:url(#grad0-6);stroke:none;stroke-linecap:butt;stroke-width:34}
		.st2 {fill:#ffffff;stroke:none;stroke-linecap:butt;stroke-width:34}
		.st3 {fill:#d15900;stroke:none;stroke-linecap:butt;stroke-width:34}
		.st4 {fill:#b31b1b;stroke:none;stroke-linecap:butt;stroke-width:34}
		.st5 {fill:#e62323;stroke:none;stroke-linecap:butt;stroke-width:34}
		.st6 {fill:#ffb34d;stroke:none;stroke-linecap:butt;stroke-width:34}
		.st7 {fill:none;fill-rule:evenodd;font-size:12px;overflow:visible;stroke-linecap:square;stroke-miterlimit:3}
	]]>
	</style>

	<defs id="Patterns_And_Gradients">
		<linearGradient id="grad0-6" x1="0" y1="0" x2="1" y2="0" gradientTransform="rotate(-90 0.5 0.5)">
			<stop offset="0" stop-color="#e27908" stop-opacity="1"/>
			<stop offset="0.325" stop-color="#e47d0a" stop-opacity="1"/>
			<stop offset="0.62" stop-color="#eb8810" stop-opacity="1"/>
			<stop offset="0.91" stop-color="#f69a19" stop-opacity="1"/>
			<stop offset="1" stop-color="#faa21d" stop-opacity="1"/>
		</linearGradient>
	</defs>
	<g>
		<title>Page-1</title>
		<g id="group8863-1" transform="translate(34,-34.0817)">
			<title>Automation Certificate</title>
			<g id="group8864-2">
				<title>Sheet.8864</title>
				<g id="shape8865-3" transform="translate(0,-11.508)">
					<title>Sheet.8865</title>
					<path d="M0 117.25 A1.88981 1.8596 -180 0 0 1.89 119.11 L54.8 119.11 A1.88981 1.8596 -180 0 0 56.69 117.25 L56.69
								 81.45 A1.88981 1.8596 -180 0 0 54.8 79.59 L1.89 79.59 A1.88981 1.8596 -180 0 0 0 81.45 L0 117.25
								 Z" class="st1"/>
				</g>
				<g id="shape8866-7" transform="translate(3.30709,-14.9947)">
					<title>Sheet.8866</title>
					<path d="M0 118.18 a0.944904 0.929801 -180 0 0 0.944882 0.929779 L49.13 119.11 a0.944904 0.929801 -180 0 0 0.944882
								 -0.929779 L50.08 87.49 a0.944904 0.929801 -180 0 0 -0.944882 -0.929779 L0.94 86.56 a0.944904 0.929801
								 -180 0 0 -0.944882 0.929779 L0 118.18 Z" class="st2"/>
				</g>
				<g id="shape8867-9" transform="translate(10.9039,-23.5362)">
					<title>Sheet.8867</title>
					<path d="M36.17 118.21 a0.913386 0.898787 0 0 1 -0.913386 0.898787 L14.81 119.11 a0.913386 0.898787 0 1 1 -1.24345E-14
								 -1.79447 L35.25 117.31 a0.910236 0.895687 0 0 1 0.913386 0.895687 ZM36.17 112.65 a0.910236 0.895687
								 0 0 1 -0.913386 0.895687 L14.81 113.55 a0.913386 0.898787 0 1 1 -1.42109E-14 -1.79447 L35.25 111.75
								 a0.913386 0.898787 0 0 1 0.913386 0.898787 ZM36.17 104.54 a0.913386 0.898787 0 0 1 -0.913386 0.898787
								 L0.97 105.44 a0.913386 0.898787 0 1 1 -1.34337E-14 -1.79447 L35.25 103.64 a0.910236 0.895687 0 0
								 1 0.913386 0.895687 Z" class="st3"/>
				</g>
				<g id="shape8868-11" transform="translate(4.87244,-2.55795E-13)">
					<title>Sheet.8868</title>
					<path d="M11.29 105.07 A7.95276 7.82564 0 0 1 0.66 105.07 L0 118.06 A1.04882 1.03206 -180 0 0 1.8 118.83 L5.89
								 114.75 L10.01 118.87 A1.04882 1.03206 -180 0 0 11.82 118.11 L11.29 105.07 Z" class="st4"/>
				</g>
				<g id="shape8869-13" transform="translate(1.46772,-11.322)">
					<title>Sheet.8869</title>
					<ellipse cx="9.48976" cy="109.736" rx="9.48976" ry="9.36908" class="st5"/>
				</g>
				<g id="shape8870-15" transform="translate(3.75748,-13.5845)">
					<title>Sheet.8870</title>
					<ellipse cx="7.2" cy="111.999" rx="7.2" ry="7.10661" class="st6"/>
				</g>
			</g>
		</g>
	</g>
</svg>
